icon-themes/sifr_svg/cmd/sc_outlineformat.svg

<svg viewBox="0 0 16 16" xmlns="http://www.w3.org/2000/svg"><path d="m13 1-1 1 2 2 1-1c-.1-1.36-.9-1.9-2-2zm-2 2-6 6v2h2l6-6zm-7 1v2h2.5859375l1.9472656-1.9472656c-.1733937-.031172-.3508354-.0527344-.5332031-.0527344zm.5390625 4.046875c-1.4366893.2229018-2.5390625 1.4539658-2.5390625 2.953125 0 1.656854 1.3431458 3 3 3h6v-5.5859375l-2 1.9999995v1.585938h-1.5859375-2.4140625-1v-1-2.4140625z" fill="#555753"/></svg>

<svg xmlns="http://www.w3.org/2000/svg" viewBox="0 0 16 16">
  <path
     style="fill:#555753"
     d="M 13 1 L 12 2 L 14 4 L 15 3 C 14.9 1.64 14.1 1.1 13 1 z M 11 3 L 5 9 L 5 11 L 7 11 L 13 5 L 11 3 z M 4 4 L 4 6 L 6.5859375 6 L 8.5332031 4.0527344 C 8.3598094 4.0215624 8.1823677 4 8 4 L 4 4 z M 4.5390625 8.046875 C 3.1023732 8.2697768 2 9.5008408 2 11 C 2 12.656854 3.3431458 14 5 14 L 11 14 L 11 8.4140625 L 9 10.414062 L 9 12 L 7.4140625 12 L 5 12 L 4 12 L 4 11 L 4 8.5859375 L 4.5390625 8.046875 z "
     />
</svg>
